X: 924
T: The Fairhaired Boy.
B:O'Neill's 924
N:"collected by Beamish."
Z:Transcribed by Tom Keays (htkeays@mailbox.syr.edu)
Z:abc 1.6
M:6/8
R:Jig
L:1/8
K:A
EAA AGA | Bdd dBd | ege dBA | BAB GED | EAA AGA | Bdd dBd |
| ege dBG | BAA A3 :| eaa eaa | egg ged | ege dBA | BGG GED |
|1 eaa eaa | egg ged | ege dBG | BAA A2 z :|2 EAA AGA |\
Bdd dBd | ege dBG | BAA A2 z ||


